project/porshe/images/svg/icon-pay.svg

<svg width="26" height="18" viewBox="0 0 26 18" fill="none" xmlns="http://www.w3.org/2000/svg">
<path fill-rule="evenodd" clip-rule="evenodd" d="M23.7907 0H2.20933C0.990496 0.0031682 0.00312788 1.00326 0 2.23781V15.6372C0.00312788 16.8717 0.990496 17.8718 2.20933 17.875H23.7907C25.0095 17.8718 25.9969 16.8717 26 15.6372V2.23781C25.9969 1.00326 25.0095 0.0031682 23.7907 0ZM23.9919 15.6374C23.9909 15.7494 23.9012 15.8391 23.7917 15.8402H2.21038C2.09986 15.8391 2.01124 15.7483 2.01019 15.6374V8.88281H23.9929L23.9919 15.6374ZM23.9919 2.68464V5.77047H2.00916V2.23898C2.01124 2.12703 2.09986 2.03727 2.20934 2.03516H23.7907C23.9012 2.03727 23.9898 2.12703 23.9909 2.23792L23.9919 2.68464Z" fill="black"/>
</svg>

<svg width="26" height="18" fill="none" xmlns="http://www.w3.org/2000/svg"><path fill-rule="evenodd" clip-rule="evenodd" d="M23.79 0H2.21C.99.003.002 1.003 0 2.238v13.4c.003 1.234.99 2.234 2.21 2.237h21.58c1.22-.003 2.207-1.003 2.21-2.238v-13.4C25.997 1.004 25.01.004 23.79 0zm.202 15.637a.204.204 0 01-.2.203H2.21a.204.204 0 01-.2-.203V8.883h21.983l-.001 6.754zm0-12.952V5.77H2.009V2.24a.206.206 0 01.2-.204h21.582c.11.002.199.092.2.203v.447z" fill="#000"/></svg>
